img/donation.svg

<svg width="18" height="17" viewBox="0 0 18 17" fill="none" xmlns="http://www.w3.org/2000/svg">
<path fill-rule="evenodd" clip-rule="evenodd" d="M9.66297 9.61806C10.1854 8.483 9.70391 7.54779 8.37379 6.96856L6.17014 6.05866C5.45622 5.7639 4.6382 5.88538 4.04058 6.37489L2.01398 8.03488L1.95505 8.62592L1.86011 13.4599V14.2999H4.31206L9.31274 15.7208C9.94357 15.9 10.6219 15.7738 11.1462 15.3797C14.4412 12.9031 16.6427 11.2307 16.9761 10.9207C17.7844 10.1692 18.1026 9.33363 17.5267 8.50996C17.0612 7.84418 16.2761 7.77316 15.3031 8.21367L10.5707 10.6205L9.24002 10.1974C9.41159 10.0494 9.55308 9.85678 9.66297 9.61806Z" fill="#1565D8"/>
<path opacity="0.3" fill-rule="evenodd" clip-rule="evenodd" d="M14.2107 0.86094H13.2001V0.65048C13.2001 0.302338 12.918 0.0200195 12.5701 0.0200195C12.2221 0.0200195 11.9401 0.302338 11.9401 0.65048V0.86094H11.7418C10.9299 0.86094 10.2718 1.51975 10.2718 2.33232V2.75342C10.2718 3.56599 10.9299 4.2248 11.7418 4.2248H13.4101C13.526 4.2248 13.6201 4.31897 13.6201 4.43526V4.85508C13.6201 4.97137 13.526 5.06554 13.4101 5.06554H11.4824C11.3892 4.84436 11.1736 4.68807 10.9209 4.68038C10.5731 4.66979 10.2826 4.9434 10.2721 5.29139L10.2604 5.67685C10.2496 6.03233 10.5346 6.32646 10.8901 6.32646H11.9401V6.52956C11.9401 6.8777 12.2221 7.16002 12.5701 7.16002C12.918 7.16002 13.2001 6.8777 13.2001 6.52956V6.32646H13.4101C14.222 6.32646 14.8801 5.66765 14.8801 4.85508V4.43526C14.8801 3.62269 14.222 2.96388 13.4101 2.96388H11.7418C11.6258 2.96388 11.5318 2.8697 11.5318 2.75342V2.33232C11.5318 2.21604 11.6258 2.12186 11.7418 2.12186H13.6631C13.7726 2.31404 13.979 2.44018 14.2107 2.44018C14.5587 2.44018 14.8407 2.15786 14.8407 1.80972V1.4914C14.8407 1.14326 14.5587 0.86094 14.2107 0.86094ZM1.44006 6.95002H1.65006V14.93H1.44006C1.09212 14.93 0.810059 15.2121 0.810059 15.56C0.810059 15.908 1.09212 16.19 1.44006 16.19H2.28006C2.628 16.19 2.91006 15.908 2.91006 15.56V6.32002C2.91006 5.97208 2.628 5.69002 2.28006 5.69002H1.44006C1.09212 5.69002 0.810059 5.97208 0.810059 6.32002C0.810059 6.66796 1.09212 6.95002 1.44006 6.95002Z" fill="#1565D8"/>
</svg>

<svg width="18" height="17" fill="none" xmlns="http://www.w3.org/2000/svg"><path fill-rule="evenodd" clip-rule="evenodd" d="M9.663 9.618c.522-1.135.04-2.07-1.29-2.65l-2.203-.91a2.097 2.097 0 00-2.13.317l-2.026 1.66-.059.59-.095 4.835v.84h2.452l5 1.42c.632.18 1.31.054 1.834-.34 3.295-2.477 5.497-4.15 5.83-4.46.808-.75 1.127-1.586.55-2.41-.465-.666-1.25-.737-2.223-.296l-4.732 2.406-1.331-.423c.172-.148.313-.34.423-.579z" fill="#1565D8"/><path opacity=".3" fill-rule="evenodd" clip-rule="evenodd" d="M14.21.86H13.2V.65a.63.63 0 10-1.26 0v.21h-.198a1.47 1.47 0 00-1.47 1.472v.421a1.47 1.47 0 001.47 1.472h1.668a.21.21 0 01.21.21v.42a.21.21 0 01-.21.21h-1.928a.63.63 0 00-1.21.226l-.012.386a.63.63 0 00.63.65h1.05v.203a.63.63 0 101.26 0v-.204h.21a1.47 1.47 0 001.47-1.47v-.42a1.47 1.47 0 00-1.47-1.472h-1.668a.21.21 0 01-.21-.21v-.422a.21.21 0 01.21-.21h1.921a.63.63 0 001.178-.312V1.49a.63.63 0 00-.63-.63zM1.44 6.95h.21v7.98h-.21a.63.63 0 000 1.26h.84a.63.63 0 00.63-.63V6.32a.63.63 0 00-.63-.63h-.84a.63.63 0 100 1.26z" fill="#1565D8"/></svg>
